icon-themes/sifr_svg/cmd/sc_editlinks.svg

<svg viewBox="0 0 16 16" xmlns="http://www.w3.org/2000/svg"><path d="m4.8125 1c-.4584.0875-.82072.5334-.8125 1v7h2v-6h4v3h3v3h2v-3.4375c.006-.2641-.0976-.52895-.28125-.71875l-3.5625-3.5625c-.18978-.1837-.45469-.28737-.71875-.28125h-5.4375c-.0312-.001-.06255-.001-.09375 0-.0312-.001-.06255-.001-.09375 0zm-4.28125 4c-.28913 0-.53125.24205-.53125.53125v9.9375c0 .2985.23264.53125.53125.53125h13.8125c.2986 0 .53125-.23265.53125-.53125l1.125-4.916016c0-.2891-.24212-.53125-.53125-.53125h-11.59375l-.875 3.478516c0 .277-.223.5-.5.5s-.5-.223-.5-.5v-4.9960938c0-.2769999.223-.5.5-.5h.4667969v-3.0039062z" fill="#555753"/></svg>

<svg xmlns="http://www.w3.org/2000/svg" viewBox="0 0 16 16">
 <path
     style="fill:#555753"
     d="M 4.8125 1 C 4.3541 1.0875 3.99178 1.5334 4 2 L 4 9 L 6 9 L 6 3 L 10 3 L 10 6 L 13 6 L 13 9 L 15 9 L 15 5.5625 C 15.006 5.2984 14.9024 5.03355 14.71875 4.84375 L 11.15625 1.28125 C 10.96647 1.09755 10.70156 0.99388 10.4375 1 L 5 1 C 4.9688 0.999 4.93745 0.999 4.90625 1 C 4.87505 0.999 4.8437 0.999 4.8125 1 z M 0.53125 5 C 0.24212 5 0 5.24205 0 5.53125 L 0 15.46875 C 0 15.76725 0.23264 16 0.53125 16 L 14.34375 16 C 14.64235 16 14.875 15.76735 14.875 15.46875 L 16 10.552734 C 16 10.263634 15.75788 10.021484 15.46875 10.021484 L 3.875 10.021484 L 3 13.5 C 3 13.777 2.777 14 2.5 14 C 2.223 14 2 13.777 2 13.5 L 2 8.5039062 C 2 8.2269063 2.223 8.0039062 2.5 8.0039062 L 2.9667969 8.0039062 L 2.9667969 5 L 0.53125 5 z "
     />
 </svg>
